X:1
T:Woodland, 86.88.6
T:Woodland, 86.88.6
T:Nathaniel Duren Gould, 1832
T:Public Domain Courtesy of the Cyber Hymnal™
C:Nathaniel Duren Gould, 1832
Z:Public Domain
Z:Courtesy of the Cyber Hymnal™
%%score ( 1 2 ) ( 3 4 )
L:1/8
Q:1/4=140
M:3/2
K:F
V:1 treble 
V:2 treble 
V:3 bass 
V:4 bass 
V:1
 F4 | [FA]2 [FA]2 [Gc]4 [FA]4 | [EG]2 [FA]2 [EG]4 [FA]4 | [Fc]6 [Gc]2 F2 [EG]2 | [FA]8 [FA]4 | %5
 [EG]2 [EG]2 [FA]4 [EB]4 | [Fc]2 [Ec]2 [Fc]4 [CA]4 | [Cc]2 [CB]2 [CA]4 [DF]4 | %8
 [DB]2 [DA]2 [DG]4 d4 | [Ec]6 [EB]2 [EA]2 [EG]2 | F8 |] %11
V:2
 F4 | x12 | x12 | x8 F2 x2 | x12 | x12 | x12 | x12 | x8 (D2 F2) | x12 | F8 |] %11
V:3
 [F,A,]4 | [F,C]2 [F,C]2 [E,C]4 [F,C]4 | [C,C]2 [C,C]2 [C,C]4 [F,C]4 | %3
 [F,A,]6 [E,G,]2 [D,A,]2 [C,C]2 | [F,C]8 [F,C]4 | C2 [B,C]2 [A,C]4 [G,C]4 | %6
 [A,C]2 [G,B,]2 [F,A,]4 F,4 | [E,G,]2 [E,G,]2 F,4 [D,A,]4 | [G,,G,]2 [A,,^F,]2 [B,,G,]4 [=B,,G,]4 | %9
 (G,4 C2) [C,D]2 [C,C]2 [C,B,]2 | [F,A,]8 |] %11
V:4
 x4 | x12 | x12 | x12 | x12 | C2 x10 | x8 F,4 | x4 F,4 x4 | x12 | C,6 x6 | x8 |] %11

